!!!OTL: IHR LEUT IHR GLAUBT MIRSCH
!!!ARE: Europa, Mitteleuropa, Deutschland, Vogtland
!!!SCT: E1112
!!!YEM: Copyright 1995, estate of Helmut Schaffrath.
**kern
*ICvox
*Ivox
*M2/4
*k[b-]
*F:
{8f
=1
8.cc
16cc
8.cc
16f
=2
8.e
16e
8e
16r}
{16cc
=3
8.cc
16cc
8b-
8g
=4
4f
8f}
{8f
=5
8.cc
16cc
8.cc
16f
=6
8.e
16e
8e
16r}
{16cc
=7
8.cc
16cc
8b-
8g
=8
4f
8f}
{8a
=9
8.b-
16cc
8.dd
16b-
=10
8.a
16b-
8.cc}
{16a
=11
8.g
16a
8.b-
16g
=12
8.a
16b-
8cc
16r}
{16a
=13
8.b-
16cc
8.dd
16b-
=14
8.a
16b-
8.cc}
{16a
=15
8.g
16a
8.b-
16g
=16
4f
8r}
==
!!!AGN: Luegen - Lied, Maerchen
!!!ONB: ESAC (Essen Associative Code) Database: ERK3
!!!AMT: simple duple
!!!AIN: vox
!!!EED: Helmut Schaffrath
!!!EEV: 1.0
*-
